images_sukapura_svg/cmd/32/pagedialog.svg

<svg viewBox="0 0 32 32" xmlns="http://www.w3.org/2000/svg" xmlns:xlink="http://www.w3.org/1999/xlink"><linearGradient id="a" gradientUnits="userSpaceOnUse" x1="13" x2="13" y1="23" y2="5"><stop offset="0" stop-color="#f7f7f7"/><stop offset=".22222222" stop-color="#fff"/><stop offset=".83333331" stop-color="#fff"/><stop offset="1" stop-color="#f7f7f7"/></linearGradient><linearGradient id="b" gradientUnits="userSpaceOnUse" x1="19.5" x2="19.5" y1="21.500001" y2="14.5"><stop offset="0" stop-color="#cfcfcf"/><stop offset=".07142864" stop-color="#e7e7e7"/><stop offset=".07142864" stop-color="#fff"/><stop offset=".5" stop-color="#f3f3f3"/><stop offset=".93333334" stop-color="#f9f9f9"/><stop offset=".93333334" stop-color="#fcfcfc"/><stop offset="1" stop-color="#fff"/></linearGradient><linearGradient id="c" gradientUnits="userSpaceOnUse" x1="19.428571" x2="19.428571" y1="18.25" y2="21.285715"><stop offset="0" stop-color="#f8f8f8"/><stop offset="1" stop-color="#fff"/></linearGradient><radialGradient id="d" cx="22" cy="9.076923" gradientTransform="matrix(1.3 .00000001 -.00000002 1.5 -6.6 -6.615385)" gradientUnits="userSpaceOnUse" r="10"><stop offset="0" stop-color="#d7d7d7"/><stop offset=".29999998" stop-color="#f7f7f7"/><stop offset="1" stop-color="#fff"/></radialGradient><linearGradient id="e" gradientUnits="userSpaceOnUse" x1="20" x2="23" y1="9" y2="6"><stop offset="0" stop-color="#fff"/><stop offset=".77967989" stop-color="#f1f1f1"/><stop offset="1" stop-color="#d5d5d5"/></linearGradient><path d="m6 3v26h19.99762l.00238-19-7-7z" fill="url(#d)"/><path d="m5.9976202 2c-.554 0-1 .446-1 1v26c0 .554.446 1 1 1h19.9999998c.554 0 .892483-.456533 1-1v-10.109375-10.5052752l-6.508082-6.3853498zm0 1h12.9999998v6c0 .6726441.491378 1 1 1h6v19h-19.9999998z" fill="#98989d"/><path d="m20 9h6l-6-6z" fill="url(#e)" fill-rule="evenodd"/><g transform="matrix(1.33333 0 0 1.33333 -2.99992 -.99992)"><path d="m15.749979 12.749972h7.500019v10.500026h-7.500019z" fill="url(#a)"/><path d="m16 12c-.554 0-1 .446-1 1v10c0 .554.446 1 1 1h7c.554 0 1-.446 1-1v-10c0-.554-.446-1-1-1zm-.250021.749972h7.500019v10.500026h-7.500019z" fill="#848489"/><g stroke-width=".607143"><path d="m16.874982 13.499974h5.250013v9.000022h-5.250013z" fill="#626262"/><path d="m17.249983 14.249976h4.500011v7.500018h-4.500011z" fill="url(#b)"/><path d="m17.999992 14.999977h3l.000008 3.000023h-3z" fill="#dadada"/><path d="m18 18h3v3h-3z" fill="url(#c)"/></g></g></svg>

<?xml version="1.0" encoding="UTF-8" standalone="no"?>
<svg
   xmlns:dc="http://purl.org/dc/elements/1.1/"
   xmlns:cc="http://creativecommons.org/ns#"
   xmlns:rdf="http://www.w3.org/1999/02/22-rdf-syntax-ns#"
   xmlns:svg="http://www.w3.org/2000/svg"
   xmlns="http://www.w3.org/2000/svg"
   xmlns:sodipodi="http://sodipodi.sourceforge.net/DTD/sodipodi-0.dtd"
   xmlns:inkscape="http://www.inkscape.org/namespaces/inkscape"
   viewBox="0 0 32 32"
   version="1.1"
   id="svg22"
   sodipodi:docname="pagedialog.svg"
   inkscape:version="0.92.3 (unknown)"
   inkscape:export-filename="/home/rizmut/Dokumen/Rizmut/Github/libreoffice-style-sukapura/images_sukapura/cmd/32/pagedialog.png"
   inkscape:export-xdpi="96"
   inkscape:export-ydpi="96">
  <metadata
     id="metadata28">
    <rdf:RDF>
      <cc:Work
         rdf:about="">
        <dc:format>image/svg+xml</dc:format>
        <dc:type
           rdf:resource="http://purl.org/dc/dcmitype/StillImage" />
        <dc:title></dc:title>
      </cc:Work>
    </rdf:RDF>
  </metadata>
  <defs
     id="defs26">
    <linearGradient
       id="a-3"
       gradientUnits="userSpaceOnUse"
       x1="11"
       x2="11"
       y1="21"
       y2="3"
       gradientTransform="translate(2,2)">
      <stop
         offset="0"
         stop-color="#f7f7f7"
         id="stop2-6" />
      <stop
         offset=".22222222"
         stop-color="#fff"
         id="stop4-7" />
      <stop
         offset=".83333331"
         stop-color="#fff"
         id="stop6-5" />
      <stop
         offset="1"
         stop-color="#f7f7f7"
         id="stop8" />
    </linearGradient>
    <linearGradient
       id="b-3"
       gradientUnits="userSpaceOnUse"
       x1="12.117647"
       x2="12.117647"
       y1="17.352942"
       y2="5.8235288"
       gradientTransform="matrix(0.60714286,0,0,0.60714286,12.142857,10.964286)">
      <stop
         offset="0"
         stop-color="#cfcfcf"
         id="stop11-5" />
      <stop
         offset="0.07142864"
         stop-color="#e7e7e7"
         id="stop13-6" />
      <stop
         offset="0.07142864"
         stop-color="#fff"
         id="stop15" />
      <stop
         offset=".5"
         stop-color="#f3f3f3"
         id="stop17" />
      <stop
         offset="0.93333334"
         stop-color="#f9f9f9"
         id="stop19" />
      <stop
         offset="0.93333334"
         stop-color="#fcfcfc"
         id="stop21" />
      <stop
         offset="1"
         stop-color="#fff"
         id="stop23" />
    </linearGradient>
    <linearGradient
       id="c"
       gradientUnits="userSpaceOnUse"
       x1="12"
       x2="12"
       y1="12"
       y2="17"
       gradientTransform="matrix(0.60714286,0,0,0.60714286,12.142857,10.964286)">
      <stop
         offset="0"
         stop-color="#f8f8f8"
         id="stop26" />
      <stop
         offset="1"
         stop-color="#fff"
         id="stop28" />
    </linearGradient>
  </defs>
  <sodipodi:namedview
     pagecolor="#ffffff"
     bordercolor="#666666"
     borderopacity="1"
     objecttolerance="10"
     gridtolerance="10"
     guidetolerance="10"
     inkscape:pageopacity="0"
     inkscape:pageshadow="2"
     inkscape:window-width="1366"
     inkscape:window-height="699"
     id="namedview24"
     showgrid="true"
     inkscape:zoom="20.85965"
     inkscape:cx="23.610371"
     inkscape:cy="18.969177"
     inkscape:window-x="0"
     inkscape:window-y="0"
     inkscape:window-maximized="1"
     inkscape:current-layer="svg22">
    <inkscape:grid
       type="xygrid"
       id="grid1651"
       spacingx="0.5"
       spacingy="0.5"
       empspacing="2" />
  </sodipodi:namedview>
  <radialGradient
     id="a"
     cx="22"
     cy="9.076923"
     gradientTransform="matrix(1.3,1e-8,-2e-8,1.5,-6.6,-6.615385)"
     gradientUnits="userSpaceOnUse"
     r="10">
    <stop
       offset="0"
       stop-color="#d7d7d7"
       id="stop2" />
    <stop
       offset=".29999998"
       stop-color="#f7f7f7"
       id="stop4" />
    <stop
       offset="1"
       stop-color="#fff"
       id="stop6" />
  </radialGradient>
  <linearGradient
     id="b"
     gradientUnits="userSpaceOnUse"
     x1="20"
     x2="23"
     y1="9"
     y2="6">
    <stop
       offset="0"
       stop-color="#fff"
       id="stop9" />
    <stop
       offset=".77967989"
       stop-color="#f1f1f1"
       id="stop11" />
    <stop
       offset="1"
       stop-color="#d5d5d5"
       id="stop13" />
  </linearGradient>
  <g
     id="g838">
    <path
       id="path16"
       d="M 6,3 V 29 H 25.99762 L 26,10 19,3 Z"
       style="fill:url(#a)"
       inkscape:connector-curvature="0" />
    <path
       id="path18"
       d="m 5.9976202,2 c -0.554,0 -1,0.446 -1,1 v 26 c 0,0.554 0.446,1 1,1 H 25.99762 c 0.554,0 0.892483,-0.456533 1,-1 V 18.890625 8.3853498 L 20.489538,2 Z m 0,1 H 18.99762 v 6 c 0,0.6726441 0.491378,1 1,1 h 6 V 29 H 5.9976202 Z"
       inkscape:connector-curvature="0"
       style="fill:#98989d" />
    <path
       id="path20"
       d="m 20,9 h 6 L 20,3 Z"
       style="fill:url(#b);fill-rule:evenodd"
       inkscape:connector-curvature="0" />
  </g>
  <g
     transform="matrix(1.33333,0,0,1.33333,-2.99992,-0.99992)"
     id="g895">
    <path
       id="path31"
       d="m 15.749979,12.749972 h 7.500019 v 10.500026 h -7.500019 z"
       style="fill:url(#a-3)"
       inkscape:connector-curvature="0"
       sodipodi:nodetypes="ccccc" />
    <path
       id="path33"
       d="m 16,12 c -0.554,0 -1,0.446 -1,1 v 10 c 0,0.554 0.446,1 1,1 h 7 c 0.554,0 1,-0.446 1,-1 V 13 c 0,-0.554 -0.446,-1 -1,-1 z m -0.250021,0.749972 h 7.500019 v 10.500026 h -7.500019 z"
       style="fill:#848489"
       inkscape:connector-curvature="0"
       sodipodi:nodetypes="sssssssssccccc" />
    <path
       id="path35"
       d="m 16.874982,13.499974 h 5.250013 v 9.000022 h -5.250013 z"
       style="fill:#626262;stroke-width:0.60714287"
       inkscape:connector-curvature="0"
       sodipodi:nodetypes="ccccc" />
    <path
       id="path37"
       d="m 17.249983,14.249976 h 4.500011 v 7.500018 h -4.500011 z"
       style="fill:url(#b-3);stroke-width:0.60714287"
       inkscape:connector-curvature="0"
       sodipodi:nodetypes="ccccc" />
    <path
       id="path39"
       d="m 17.999992,14.999977 h 3 L 21,18 h -3 z"
       style="fill:#dadada;stroke-width:0.60714287"
       inkscape:connector-curvature="0"
       sodipodi:nodetypes="ccccc" />
    <path
       id="path41"
       d="m 18,18 h 3 v 3 h -3 z"
       style="fill:url(#c);stroke-width:0.60714287"
       inkscape:connector-curvature="0"
       sodipodi:nodetypes="ccccc" />
  </g>
</svg>
